img/icons/inXLS.svg

<svg width="24" height="24" viewBox="0 0 24 24" fill="none" xmlns="http://www.w3.org/2000/svg">
<path d="M19.0002 9H16.2002C15.0801 9 14.5196 8.99997 14.0918 8.78198C13.7155 8.59024 13.4097 8.28429 13.218 7.90797C13 7.48014 13 6.9201 13 5.8V3M19 17.8V9.3255C19 8.83632 18.9996 8.59169 18.9443 8.36151C18.8953 8.15744 18.8147 7.96238 18.705 7.78343C18.5814 7.5816 18.4089 7.40864 18.063 7.06274L14.9375 3.93726C14.5916 3.59135 14.4186 3.41842 14.2168 3.29474C14.0379 3.18508 13.8428 3.10425 13.6388 3.05526C13.4086 3 13.1639 3 12.6747 3H8.2002C7.08009 3 6.51962 3 6.0918 3.21799C5.71547 3.40973 5.40973 3.71572 5.21799 4.09204C5 4.51986 5 5.07991 5 6.20001V17.8C5 18.9201 5 19.4801 5.21799 19.908C5.40973 20.2843 5.71547 20.5902 6.0918 20.782C6.51962 21 7.08009 21 8.2002 21H15.8002C16.9203 21 17.48 21 17.9078 20.782C18.2841 20.5902 18.5905 20.2843 18.7822 19.908C19.0002 19.4801 19 18.9201 19 17.8Z" stroke="#8C8D92" stroke-width="2" stroke-linecap="round" stroke-linejoin="round"/>
<path fill-rule="evenodd" clip-rule="evenodd" d="M16.3221 15.7115C16.4845 15.8996 16.5622 16.1283 16.5622 16.382C16.5622 16.6015 16.5039 16.8051 16.3842 16.9847L16.3834 16.9858C16.2656 17.1591 16.1043 17.2927 15.909 17.3871L15.908 17.3876C15.7109 17.4811 15.4883 17.524 15.2482 17.524C15.0757 17.524 14.9037 17.4856 14.7573 17.4447C14.6716 17.4208 14.5851 17.3887 14.5037 17.3427C14.339 17.2499 14.2082 17.1415 14.1052 17.0328C13.9621 16.882 13.9537 16.6958 14.0431 16.5501C14.1289 16.4103 14.2975 16.318 14.4911 16.318C14.6116 16.318 14.7183 16.3595 14.8113 16.4112C14.8828 16.4508 14.9524 16.5002 15.0153 16.5449C15.0326 16.5571 15.0494 16.569 15.0656 16.5803C15.1387 16.6311 15.235 16.6602 15.3647 16.6205C15.4201 16.6035 15.4478 16.5725 15.4602 16.5391C15.4736 16.5032 15.4735 16.4523 15.448 16.393C15.3975 16.2755 15.2498 16.1393 14.9847 16.0989C14.6944 16.0546 14.5202 16.0202 14.4002 15.9722C14.2705 15.9203 14.2053 15.853 14.1296 15.7638L14.1287 15.7628C13.9686 15.5707 13.8902 15.3402 13.8902 15.086C13.8902 14.8678 13.9437 14.6652 14.0576 14.4872L14.0595 14.4843C14.1742 14.3105 14.3314 14.1776 14.5235 14.0849C14.7193 13.9919 14.9384 13.948 15.1722 13.948C15.38 13.948 15.5774 13.9838 15.7617 14.0582C15.9438 14.1316 16.1036 14.2369 16.238 14.3743C16.2997 14.4361 16.3256 14.4659 16.3507 14.502C16.3582 14.5127 16.3647 14.5225 16.3717 14.5332C16.3875 14.5572 16.4062 14.5855 16.4452 14.6379C16.4643 14.6637 16.4805 14.6926 16.4923 14.7237C16.5789 14.9521 16.4078 15.1959 16.1636 15.1922L15.8776 15.1879C15.7621 15.1862 15.662 15.1229 15.6013 15.0355C15.5465 14.9568 15.4693 14.8623 15.3891 14.8095C15.3498 14.7836 15.2628 14.7667 15.1618 14.7828C15.0625 14.7987 14.9804 14.8417 14.9401 14.8996C14.9087 14.9446 14.912 15.0231 14.9614 15.0929C14.9658 15.0992 14.9704 15.1054 14.9752 15.1116C15.0955 15.2668 15.3096 15.3238 15.5467 15.3408C15.6745 15.3499 15.8098 15.3709 15.9375 15.4254C16.0999 15.4947 16.2079 15.5767 16.3221 15.7115ZM8.24571 15.6862L7.66113 16.5798C7.42266 16.9444 7.68421 17.428 8.11983 17.428C8.3043 17.428 8.4764 17.3352 8.57777 17.1811L8.89026 16.706L9.19889 17.1792C9.30011 17.3344 9.47288 17.428 9.65817 17.428C10.0935 17.428 10.3552 16.9451 10.1176 16.5804L9.53507 15.6862L10.1166 14.7959C10.3548 14.4313 10.0932 13.948 9.65776 13.948C9.47284 13.948 9.30038 14.0413 9.19912 14.196L8.88959 14.669L8.57767 14.1948C8.47637 14.0407 8.30437 13.948 8.12001 13.948C7.68436 13.948 7.42303 14.4319 7.66197 14.7962L8.24571 15.6862ZM11.0651 16.9647V14.508C11.0651 14.1987 11.3159 13.948 11.6251 13.948C11.9344 13.948 12.1851 14.1987 12.1851 14.508V16.278C12.1851 16.3388 12.2344 16.388 12.2951 16.388H12.9251C13.2123 16.388 13.4451 16.6208 13.4451 16.908C13.4451 17.1952 13.2123 17.428 12.9251 17.428H11.5285C11.2726 17.428 11.0651 17.2206 11.0651 16.9647Z" fill="#8C8D92"/>
</svg>

<svg width="24" height="24" fill="none" xmlns="http://www.w3.org/2000/svg"><path d="M19 9h-2.8c-1.12 0-1.68 0-2.108-.218a2 2 0 0 1-.874-.874C13 7.48 13 6.92 13 5.8V3m6 14.8V9.325c0-.489 0-.733-.056-.963-.049-.205-.13-.4-.239-.579-.124-.201-.296-.374-.642-.72l-3.125-3.126c-.346-.346-.52-.519-.721-.642a2 2 0 0 0-.578-.24C13.409 3 13.164 3 12.675 3H8.2c-1.12 0-1.68 0-2.108.218a2 2 0 0 0-.874.874C5 4.52 5 5.08 5 6.2v11.6c0 1.12 0 1.68.218 2.108a2 2 0 0 0 .874.874C6.52 21 7.08 21 8.2 21h7.6c1.12 0 1.68 0 2.108-.218.376-.192.682-.498.874-.874C19 19.48 19 18.92 19 17.8Z" stroke="#8C8D92" stroke-width="2" stroke-linecap="round" stroke-linejoin="round"/><path fill-rule="evenodd" clip-rule="evenodd" d="M16.322 15.711c.163.189.24.417.24.671 0 .22-.058.423-.178.603-.118.174-.28.308-.475.402h-.001a1.52 1.52 0 0 1-.66.137c-.172 0-.344-.038-.49-.08a1.13 1.13 0 0 1-.254-.101 1.688 1.688 0 0 1-.399-.31.386.386 0 0 1-.062-.483.52.52 0 0 1 .448-.232c.12 0 .227.041.32.093.072.04.141.09.204.134l.05.035c.074.051.17.08.3.04.055-.017.083-.047.095-.08a.198.198 0 0 0-.012-.147c-.05-.117-.198-.254-.463-.294-.29-.044-.465-.079-.585-.127a.633.633 0 0 1-.27-.208l-.001-.001a1.032 1.032 0 0 1-.239-.677c0-.218.054-.42.168-.599l.002-.003a1.14 1.14 0 0 1 .463-.4 1.5 1.5 0 0 1 .65-.136c.207 0 .404.036.589.11a1.382 1.382 0 0 1 .61.475c.015.024.034.053.073.105a.346.346 0 0 1-.282.554l-.285-.004a.346.346 0 0 1-.277-.152.89.89 0 0 0-.212-.226.354.354 0 0 0-.227-.027c-.1.016-.182.059-.222.117-.031.045-.028.123.021.193a.472.472 0 0 0 .014.019c.12.155.335.212.572.229.127.009.263.03.39.084.163.07.27.152.385.286Zm-8.076-.025-.585.894a.548.548 0 0 0 .917.601l.312-.475.309.473a.548.548 0 0 0 .919-.599l-.583-.894.582-.89a.548.548 0 0 0-.918-.6l-.31.473-.311-.474a.548.548 0 0 0-.916.601l.584.89Zm2.82 1.279v-2.457a.56.56 0 0 1 1.12 0v1.77c0 .06.048.11.11.11h.63a.52.52 0 1 1 0 1.04h-1.398a.463.463 0 0 1-.463-.463Z" fill="#8C8D92"/></svg>
